X: 121006
T: NEGRO MELODY
P: Same figure.
%R: reel
B: James Kerr "Merry Melodies" v.1 p.21 s.0 #6
Z: 2017 John Chambers <jc:trillian.mit.edu>
M: 2/4
L: 1/16
K: Bm	% and D
uF2 |\
Bcde f2b2 | Bcde f2b2 |\
abag fgfe | dedc B2F2 |\
Bcde f2b2 | Bcde f2b2 |\
abag fgfe | d2c2B2 |]\
uA2 |\
vd3uA F2A2 | G2B2A2c2 |\
d3A F2A2 | Bdce d2A2 |
d3A F2A2 | G2B2A2c2 |\
d3A F2A2 | B2c2d2 |]\
uA2 |\
vd3ue f2a2 | g2f2e2d2 |\
f3e d2A2 | Bdce d2A2 |\
d3e f2a2 | g2f2e2d2 |\
f3e d2A2 | B2c2d2 :|

%%sep 1 1 500
%%sep 1 1 500

